X:1
T:Partition sans titre
C:Compositeur / Arrangeur
L:1/8
M:4/4
I:linebreak $
K:D
V:1 treble nm="Violon" snm="Vln."
V:1
"Bm" fB PB2 Bcde | fece"A" Pa3 e | (3fga ed cA PA2 | ^GAce a^gba |"Bm" fB PB2 Bcde | %5
 fece"A7" Pa3 f | g3 e Pf3 e |"Bm" dBBA FB PB2 ::"Bm" (3Bcd cd BF PF2 | DF PF2 Bcdf | %10
"A" ecBc AE PE2 | CEAB cedc |"Bm" (3Bcd cd BF PF2 | DF PF2 Bcdf |"A" ecBA fcec |"Bm" dcBA FB PB2 :| %16
